X:1
T:Author of Life, 66.66.88
T:Author of Life, 66.66.88
T:John Stainer, 1875
T:Public Domain Courtesy of the Cyber Hymnal™
C:John Stainer, 1875
Z:Public Domain
Z:Courtesy of the Cyber Hymnal™
%%score ( 1 2 ) ( 3 4 )
L:1/8
M:3/4
K:Ab
V:1 treble 
V:2 treble 
V:3 bass 
V:4 bass 
V:1
 [CA]2 [DB]2 [Ec]2 | [Dd]4 [DF]2 | [CE]4 [Ec]2 | [=Dc]4 [EB]2 | (F2 G2) [=DA]2 | [EG]6 | %6
 [EB]2 [Ec]2 [Fd]2 | [_Ge]4 [EG]2 | [EF]4 [EF]2 | d4 [Fc]2 | (B2 A2) [FB]2 | [=Ec]4 [Ec]2 | c4 G2 | %13
 [FA]4 [Ge]2 | e4 B2 | [Ac]4 [EA]2 |"^rall." [FA]4 [Ac]2 | (f2 e2) [A=d]2 | e4 [DG]2 | [CA]6 |] %20
V:2
 x6 | x6 | x6 | x6 | E4 x2 | x6 | x6 | x6 | x6 | (D2 E2) x2 | F4 x2 | x6 | (=E2 F2) G2 | x6 | %14
 (G2 A2) B2 | x6 | x6 | A4 x2 | (A2 E2) x2 | x6 |] %20
V:3
 [A,,A,]2 [A,,A,]2 [A,,_G,]2 | [A,,F,]4 [A,,G,]2 | [A,,A,]4 [A,C]2 | [F,A,]4 [G,B,]2 | %4
 ([A,C]2 B,2) [B,,F,]2 | [E,G,]6 | [E,_G,]2 [E,G,]2 [D,B,]2 | [C,=A,]4 [B,,B,]2 | %8
 [=A,,C]4 [A,,C]2 | (F,2 G,2) [C,=A,]2 | (B,2 D2) [D,B,]2 | [C,G,]4 [C,G,]2 | G,4 [=E,C]2 | %13
 [F,C]4 [E,D]2 | ([E,D]2 [F,C]2) [G,B,]2 | [A,E]4 [A,C]2 | [F,C]4 [F,C]2 | =B,4 [F,B,]2 | %18
 [E,C]4 [E,B,]2 | [A,,A,]6 |] %20
V:4
 x6 | x6 | x6 | x6 | x2 B,2 x2 | x6 | x6 | x6 | x6 | B,,4 x2 | D,4 x2 | x6 | (C,2 =D,2) x2 | x6 | %14
 x6 | x6 | x6 | (=D,2 E,2) x2 | x6 | x6 |] %20

